src/icons/logos/navillus.svg

<svg width="512" height="128" viewBox="0 0 512 128" fill="none" xmlns="http://www.w3.org/2000/svg">
<path fill-rule="evenodd" clip-rule="evenodd" d="M128 64C128 99.3462 99.3462 128 64 128C28.6538 128 0 99.3462 0 64C0 28.6538 28.6538 0 64 0C99.3462 0 128 28.6538 128 64ZM74.8254 25.25L64.0001 6.5L53.1748 25.25H58V52.3438L44.1562 38.5L38.4994 44.1569L52.3425 58H25.25V53.1748L6.5 64.0001L25.25 74.8254V70H52.2549L38.5 83.7549L44.1569 89.4117L58 75.5686V102.75H53.1748L64.0001 121.5L74.8254 102.75H70V75.6575L83.7542 89.4117L89.4111 83.7548L75.6562 70H102.75V74.8254L121.5 64.0001L102.75 53.1748V58H75.5686L89.4117 44.1569L83.7548 38.5L70 52.2549V25.25H74.8254Z" fill="currentColor"/>
<path d="M222.457 96H214.267L181.327 46.05V96H173.137V33.18H181.327L214.267 83.04V33.18H222.457V96ZM233.358 71.16C233.358 66.12 234.378 61.71 236.418 57.93C238.458 54.09 241.248 51.12 244.788 49.02C248.388 46.92 252.378 45.87 256.758 45.87C261.078 45.87 264.828 46.8 268.008 48.66C271.188 50.52 273.558 52.86 275.118 55.68V46.68H283.398V96H275.118V86.82C273.498 89.7 271.068 92.1 267.828 94.02C264.648 95.88 260.928 96.81 256.668 96.81C252.288 96.81 248.328 95.73 244.788 93.57C241.248 91.41 238.458 88.38 236.418 84.48C234.378 80.58 233.358 76.14 233.358 71.16ZM275.118 71.25C275.118 67.53 274.368 64.29 272.868 61.53C271.368 58.77 269.328 56.67 266.748 55.23C264.228 53.73 261.438 52.98 258.378 52.98C255.318 52.98 252.528 53.7 250.008 55.14C247.488 56.58 245.478 58.68 243.978 61.44C242.478 64.2 241.728 67.44 241.728 71.16C241.728 74.94 242.478 78.24 243.978 81.06C245.478 83.82 247.488 85.95 250.008 87.45C252.528 88.89 255.318 89.61 258.378 89.61C261.438 89.61 264.228 88.89 266.748 87.45C269.328 85.95 271.368 83.82 272.868 81.06C274.368 78.24 275.118 74.97 275.118 71.25ZM315.599 88.44L330.899 46.68H339.629L320.279 96H310.739L291.389 46.68H300.209L315.599 88.44ZM351.918 38.67C350.358 38.67 349.038 38.13 347.958 37.05C346.878 35.97 346.338 34.65 346.338 33.09C346.338 31.53 346.878 30.21 347.958 29.13C349.038 28.05 350.358 27.51 351.918 27.51C353.418 27.51 354.678 28.05 355.698 29.13C356.778 30.21 357.318 31.53 357.318 33.09C357.318 34.65 356.778 35.97 355.698 37.05C354.678 38.13 353.418 38.67 351.918 38.67ZM355.878 46.68V96H347.688V46.68H355.878ZM378.026 29.4V96H369.836V29.4H378.026ZM400.175 29.4V96H391.985V29.4H400.175ZM457.873 46.68V96H449.683V88.71C448.123 91.23 445.933 93.21 443.113 94.65C440.353 96.03 437.293 96.72 433.933 96.72C430.093 96.72 426.643 95.94 423.583 94.38C420.523 92.76 418.093 90.36 416.293 87.18C414.553 84 413.683 80.13 413.683 75.57V46.68H421.783V74.49C421.783 79.35 423.013 83.1 425.473 85.74C427.933 88.32 431.293 89.61 435.553 89.61C439.933 89.61 443.383 88.26 445.903 85.56C448.423 82.86 449.683 78.93 449.683 73.77V46.68H457.873ZM489.161 96.81C485.381 96.81 481.991 96.18 478.991 94.92C475.991 93.6 473.621 91.8 471.881 89.52C470.141 87.18 469.181 84.51 469.001 81.51H477.461C477.701 83.97 478.841 85.98 480.881 87.54C482.981 89.1 485.711 89.88 489.071 89.88C492.191 89.88 494.651 89.19 496.451 87.81C498.251 86.43 499.151 84.69 499.151 82.59C499.151 80.43 498.191 78.84 496.271 77.82C494.351 76.74 491.381 75.69 487.361 74.67C483.701 73.71 480.701 72.75 478.361 71.79C476.081 70.77 474.101 69.3 472.421 67.38C470.801 65.4 469.991 62.82 469.991 59.64C469.991 57.12 470.741 54.81 472.241 52.71C473.741 50.61 475.871 48.96 478.631 47.76C481.391 46.5 484.541 45.87 488.081 45.87C493.541 45.87 497.951 47.25 501.311 50.01C504.671 52.77 506.471 56.55 506.711 61.35H498.521C498.341 58.77 497.291 56.7 495.371 55.14C493.511 53.58 490.991 52.8 487.811 52.8C484.871 52.8 482.531 53.43 480.791 54.69C479.051 55.95 478.181 57.6 478.181 59.64C478.181 61.26 478.691 62.61 479.711 63.69C480.791 64.71 482.111 65.55 483.671 66.21C485.291 66.81 487.511 67.5 490.331 68.28C493.871 69.24 496.751 70.2 498.971 71.16C501.191 72.06 503.081 73.44 504.641 75.3C506.261 77.16 507.101 79.59 507.161 82.59C507.161 85.29 506.411 87.72 504.911 89.88C503.411 92.04 501.281 93.75 498.521 95.01C495.821 96.21 492.701 96.81 489.161 96.81Z" fill="currentColor"/>
</svg>

<svg xmlns="http://www.w3.org/2000/svg" width="512" height="128" fill="none">
    <path fill="currentColor" fill-rule="evenodd"
        d="M128 64c0 35.346-28.654 64-64 64-35.346 0-64-28.654-64-64C0 28.654 28.654 0 64 0c35.346 0 64 28.654 64 64ZM74.825 25.25 64 6.5 53.175 25.25H58v27.094L44.156 38.5 38.5 44.157 52.342 58H25.25v-4.825L6.5 64l18.75 10.825V70h27.005L38.5 83.755l5.657 5.657L58 75.569v27.181h-4.825L64 121.5l10.825-18.75H70V75.657l13.754 13.755 5.657-5.657L75.656 70h27.094v4.825L121.5 64l-18.75-10.825V58H75.569l13.843-13.843-5.657-5.657L70 52.255V25.25h4.825Z"
        clip-rule="evenodd" />
    <path fill="currentColor"
        d="M222.457 96h-8.19l-32.94-49.95V96h-8.19V33.18h8.19l32.94 49.86V33.18h8.19V96Zm10.901-24.84c0-5.04 1.02-9.45 3.06-13.23 2.04-3.84 4.83-6.81 8.37-8.91 3.6-2.1 7.59-3.15 11.97-3.15 4.32 0 8.07.93 11.25 2.79 3.18 1.86 5.55 4.2 7.11 7.02v-9h8.28V96h-8.28v-9.18c-1.62 2.88-4.05 5.28-7.29 7.2-3.18 1.86-6.9 2.79-11.16 2.79-4.38 0-8.34-1.08-11.88-3.24-3.54-2.16-6.33-5.19-8.37-9.09-2.04-3.9-3.06-8.34-3.06-13.32Zm41.76.09c0-3.72-.75-6.96-2.25-9.72-1.5-2.76-3.54-4.86-6.12-6.3-2.52-1.5-5.31-2.25-8.37-2.25-3.06 0-5.85.72-8.37 2.16-2.52 1.44-4.53 3.54-6.03 6.3s-2.25 6-2.25 9.72c0 3.78.75 7.08 2.25 9.9 1.5 2.76 3.51 4.89 6.03 6.39 2.52 1.44 5.31 2.16 8.37 2.16 3.06 0 5.85-.72 8.37-2.16 2.58-1.5 4.62-3.63 6.12-6.39 1.5-2.82 2.25-6.09 2.25-9.81Zm40.481 17.19 15.3-41.76h8.73L320.279 96h-9.54l-19.35-49.32h8.82l15.39 41.76Zm36.319-49.77c-1.56 0-2.88-.54-3.96-1.62s-1.62-2.4-1.62-3.96.54-2.88 1.62-3.96 2.4-1.62 3.96-1.62c1.5 0 2.76.54 3.78 1.62 1.08 1.08 1.62 2.4 1.62 3.96s-.54 2.88-1.62 3.96c-1.02 1.08-2.28 1.62-3.78 1.62Zm3.96 8.01V96h-8.19V46.68h8.19Zm22.148-17.28V96h-8.19V29.4h8.19Zm22.149 0V96h-8.19V29.4h8.19Zm57.698 17.28V96h-8.19v-7.29c-1.56 2.52-3.75 4.5-6.57 5.94-2.76 1.38-5.82 2.07-9.18 2.07-3.84 0-7.29-.78-10.35-2.34-3.06-1.62-5.49-4.02-7.29-7.2-1.74-3.18-2.61-7.05-2.61-11.61V46.68h8.1v27.81c0 4.86 1.23 8.61 3.69 11.25 2.46 2.58 5.82 3.87 10.08 3.87 4.38 0 7.83-1.35 10.35-4.05 2.52-2.7 3.78-6.63 3.78-11.79V46.68h8.19Zm31.288 50.13c-3.78 0-7.17-.63-10.17-1.89-3-1.32-5.37-3.12-7.11-5.4-1.74-2.34-2.7-5.01-2.88-8.01h8.46c.24 2.46 1.38 4.47 3.42 6.03 2.1 1.56 4.83 2.34 8.19 2.34 3.12 0 5.58-.69 7.38-2.07 1.8-1.38 2.7-3.12 2.7-5.22 0-2.16-.96-3.75-2.88-4.77-1.92-1.08-4.89-2.13-8.91-3.15-3.66-.96-6.66-1.92-9-2.88-2.28-1.02-4.26-2.49-5.94-4.41-1.62-1.98-2.43-4.56-2.43-7.74 0-2.52.75-4.83 2.25-6.93 1.5-2.1 3.63-3.75 6.39-4.95 2.76-1.26 5.91-1.89 9.45-1.89 5.46 0 9.87 1.38 13.23 4.14 3.36 2.76 5.16 6.54 5.4 11.34h-8.19c-.18-2.58-1.23-4.65-3.15-6.21-1.86-1.56-4.38-2.34-7.56-2.34-2.94 0-5.28.63-7.02 1.89-1.74 1.26-2.61 2.91-2.61 4.95 0 1.62.51 2.97 1.53 4.05 1.08 1.02 2.4 1.86 3.96 2.52 1.62.6 3.84 1.29 6.66 2.07 3.54.96 6.42 1.92 8.64 2.88 2.22.9 4.11 2.28 5.67 4.14 1.62 1.86 2.46 4.29 2.52 7.29 0 2.7-.75 5.13-2.25 7.29s-3.63 3.87-6.39 5.13c-2.7 1.2-5.82 1.8-9.36 1.8Z" />
</svg>
